X: 99
M: 6/8
L: 1/8
K: D
d2d "b."BAG | F2A ABc | d2d BAF | E2e edc |
"c."dcd "b."BAG | F2A ABc | dcd BAF | EFE E2 |]
P: Var:
"a."A2A || "b."BAA || "c."d2d |]


